!!!OTL: SO ZIEHN WIR PREUSSEN IN DAS FELD
!!!ARE: Europa, Mitteleuropa, Deutschland
!!!SCT: Z0192
!!!YEM: Copyright 1995, estate of Helmut Schaffrath.
**kern
*ICvox
*Ivox
*M4/4
*k[f#]
*G:
{8d
=1
4g
4d
4d
4g
=2
4e
4c
4c}
{4a
=3
4f#
4d
4e
4f#
=4
2g
4r}
{4d
=5
4g
4d
4d
4g
=6
4e
4c
4c}
{4a
=7
4f#
4d
4e
4f#
=8
2g
4r}
{8g
8a
=9
4b
8b
8b
8cc
8b
8a
8g
=10
8a
8d
8d
8d
4d}
{8d
8f#
=11
4a
8a
8a
8dd
8cc
8b
8a
=12
4g
4a
8b}
{8d
8e
8f#
=13
2g
8b
8a
8g
8f#
=14
4.e
8cc
8cc}
{8cc
8cc
8cc
=15
4b
4b
4a
4a
=16
2.g}
{4dd
=17
4b
4dd
4b
4dd
=18
8ee
8dd
8cc
8b
4cc}
{4cc
=19
4a
4cc
4a
4cc
=20
8dd
8cc
8b
8a
8b}
{8d
8e
8f#
=21
2g
8b
8a
8g
8f#
=22
4.e
8cc
8cc}
{8b
8a
8g
=23
4b
4b
4a
4a
=24
2g
4.r}
==
!!!AGN: Soldaten -, Kriegs - Lied (Preussen 1813 - 1815)
!!!ONB: ESAC (Essen Associative Code) Database: ZUCCAL
!!!AMT: simple quadruple
!!!AIN: vox
!!!EED: Helmut Schaffrath
!!!EEV: 1.0
*-
